X:85
T:Good Morrow Moll - FJ Adams
%%VWML:SBG-1-2-796-0
F:http://www.vwml.org/record/SBG/1/2/796
Z:Original Sibelius transcriptions by M. & S. Graebe
M:2/4
I:linebreak $
K:D
 F2 | G3 G F3 E | B6 G E | D6 F2 | A3 A A2 F2 | A6 A2 | G3 G F2 E2 | B4 GE |$ D6 E2 | F3 A AG F2 | %10
w: |||* How|far * * *|* I've|some- thing * *||* sweet|Moll * * * *|
 E6"^*" A2 | d3 c B3 A | B6 A2 | d6 c2 | B3 A B3 A | d6 A2 |$ d3 c B3 A | G6 F2 | A6 F2 | %19
w: * What|hast * * *||* I|prithee _ _ _|_ see|how * * *||* For|
 A3 A A2GE |"^*" D6 F2 | G3 G F3 E | B6 GE |$ D6 F2 | A3 A A2 F2 | A6 A2 | G3 G F2 E2 | B4 GE | %28
w: |* our||||||||
 D6 E2 | F3 A AG F2 | E6 x2 | %31
w: |||

